X: 663
T: the Plaid Mantle   #2
R: reel
%S: s:2 b:11(5+6)
B: Francis O'Neill: "The Dance Music of Ireland" (1907) #663
Z: Frank Nordberg - http://www.musicaviva.com
F: http://www.musicaviva.com/abc/tunes/ireland/oneill-1001/0663/oneill-1001-0663-1.abc
M: C|
L: 1/8
K: D
%%slurgraces 1
%%graceslurs 1
"^A"\
[|](AG) | FEDE FGAF | GBAG FDD(E | {G}FE)DE FGAg |[1 fdec dc :|[2 faec d2 |]
"^B"\
|: (de) | fedc dcAF | GBAG FDD [1 g | fdec dcAg | faec d2 :|[2 (E | {G}FE)DE FGAg | faec d2 |]
